!!!OTL: Springtanz der Ditmarsen
!!!ARE: Europa, Mitteleuropa, Deutschland
!!!SCT: A0292
!!!YEM: Copyright 1995, estate of Helmut Schaffrath.
**kern
*ICvox
*Ivox
*M4/2
*k[b-]
*d:
{2d
=1
2.d
4c#
4d
4c#
4d
4e
=2
1fn
2e}
{2e
=3
2d
2e
2d
2cn
=4
1B
2r}
{4d
4d
=5
2A
2B
2cn
2d
=6
2e
4d
4cn
2B}
{2e
=7
4e
4d
4e
4fn
2a
2g
=8
2fn
4e
4d
2cn}
{2d
=9
2e
2d
4c#
4B
4d
4c#
=10
1.d}
==
!!!AGN: Romanze, Ballade, Lied
!! Souterliedekens ad Ps. 60.
!!!ONB: ESAC (Essen Associative Code) Database: ALTDEU
!!!AMT: simple quadruple
!!!AIN: vox
!!!EED: Helmut Schaffrath
!!!EEV: 1.0
*-
